X:281
T: Chun gong yao
N: C0508
O: China, Ningxia, Longde
S: I, 173]
N: neues Volkslied. Stimmt man besonders vor Europaern an.
N: Typisch fuer diese Provinz.
R: Xiaodiao, Shidiao, Molihua diao. Biaoda aiqing]
M: 2/4
L: 1/16
K: F
c2Acd2f2 | c4A2GA | c2Acd2f2 | c8
c2B4c2 | f3dc2G2 | B2G2B2AG | F2D2F4
GAGFG4 | c4d2c2 | G2A2G2F2
F2C4F2 | G3AF2D2 | C8
GAGFG4 | c4d2c2 | G2A2G2F2
F2C4F2 | G3AF2D2 | C8

